images/ico_step2.svg

<svg width="65" height="70" viewBox="0 0 65 70" fill="none" xmlns="http://www.w3.org/2000/svg">
<path fill-rule="evenodd" clip-rule="evenodd" d="M62.4534 47.6638C62.4534 48.3285 61.9872 48.8693 61.4142 48.8693H60.3755H51.2055C48.7175 48.8693 46.6935 46.5211 46.6935 43.6349C46.6935 40.7486 48.7175 38.4006 51.2055 38.4006H60.3755H61.4142C61.9872 38.4006 62.4534 38.9412 62.4534 39.606V47.6638ZM59.1021 67.0458H7.30753C4.68235 67.0458 2.54675 64.5682 2.54675 61.5228V20.9949C3.28451 21.7317 4.15074 22.2992 5.09987 22.6489C5.10445 22.6506 5.10916 22.6522 5.11375 22.6538C5.21714 22.6916 5.32155 22.7269 5.42711 22.7594C5.43678 22.7625 5.44672 22.7652 5.45639 22.7681C5.5575 22.799 5.65936 22.8272 5.76212 22.8531C5.77409 22.856 5.78618 22.8588 5.79815 22.8618C5.89963 22.8866 6.00175 22.9089 6.10476 22.9289C6.11724 22.9312 6.12972 22.9334 6.1422 22.9358C6.24572 22.9551 6.35 22.972 6.45492 22.9862C6.46651 22.9878 6.4781 22.9893 6.48969 22.9907C6.59664 23.0046 6.70437 23.0159 6.8126 23.0243C6.81833 23.0247 6.8238 23.0256 6.82941 23.0261C6.83208 23.0262 6.8345 23.026 6.83705 23.0263C6.84965 23.0272 6.86238 23.0286 6.87499 23.0296C6.87957 23.0299 6.88378 23.0299 6.88823 23.0303C6.93611 23.0334 6.98386 23.0362 7.03199 23.0383C7.12507 23.0427 7.21675 23.0457 7.30715 23.0457H7.30728H53.0234H54.9058H59.1021V35.4464H51.2055C47.3133 35.4464 44.1468 39.1197 44.1468 43.6349C44.1468 48.15 47.3133 51.8235 51.2055 51.8235H59.1021V67.0458ZM7.30715 9.04632H27.5402L22.2688 11.7726L6.38731 19.9866C6.32365 19.9721 6.26062 19.9559 6.19797 19.9386C6.19135 19.9367 6.18447 19.935 6.17772 19.9331C6.12093 19.917 6.06465 19.8993 6.00876 19.881C5.99424 19.8761 5.9796 19.8715 5.96521 19.8665C5.913 19.8488 5.86143 19.8299 5.80986 19.8101C5.79268 19.8033 5.77523 19.7965 5.75791 19.7895C5.70825 19.7696 5.65872 19.7491 5.6097 19.7272C5.59238 19.7195 5.57532 19.7114 5.558 19.7036C5.5086 19.6808 5.45945 19.6576 5.41106 19.6331C5.39769 19.6265 5.38483 19.6192 5.37159 19.6124C5.13768 19.4912 4.91371 19.3491 4.7017 19.1875C4.69674 19.1836 4.69164 19.1801 4.68668 19.1762C4.63842 19.1392 4.59105 19.1008 4.54407 19.0616C4.53413 19.0533 4.52408 19.0452 4.51414 19.0369C4.46843 18.9984 4.42361 18.9588 4.37917 18.9185C4.36924 18.9093 4.35918 18.9003 4.34925 18.8912C4.30417 18.8496 4.25999 18.8073 4.21644 18.764C4.20893 18.7566 4.20155 18.7491 4.19416 18.7415C4.14807 18.6953 4.10248 18.6482 4.05817 18.5999C4.05664 18.5982 4.05524 18.5968 4.05384 18.5951C3.7131 18.2241 3.41935 17.7957 3.18417 17.3242C3.18315 17.3219 3.18201 17.3197 3.18086 17.3174C3.14788 17.2511 3.11592 17.1839 3.08536 17.116C3.08498 17.1152 3.08472 17.1145 3.08434 17.1137C2.93549 16.783 2.81555 16.4328 2.72654 16.0681C2.72068 16.0445 2.71457 16.0211 2.7091 15.9975C2.69751 15.9473 2.68707 15.8966 2.67663 15.8459C2.6695 15.8115 2.66249 15.7771 2.656 15.7424C2.64747 15.697 2.6397 15.6517 2.63206 15.606C2.62519 15.5641 2.61869 15.522 2.61258 15.4798C2.60672 15.4388 2.60099 15.3978 2.5959 15.3566C2.58979 15.3072 2.58444 15.2574 2.57947 15.2077C2.57604 15.1719 2.57222 15.1363 2.56916 15.1006C2.56407 15.0393 2.56037 14.9775 2.55706 14.9156C2.55566 14.8901 2.55363 14.8645 2.55261 14.8388C2.54891 14.7493 2.54675 14.6595 2.54675 14.569V14.567C2.54751 11.5227 4.68286 9.04632 7.30715 9.04632ZM48.6458 13.8054L51.0616 20.0915H12.4385L23.0438 14.6063L44.6573 3.42781L48.6458 13.8054ZM49.605 9.04632H53.9377V20.0915H53.85L50.0359 10.1675L49.605 9.04632ZM61.6488 35.4561V21.5686C61.6488 20.7528 61.0786 20.0915 60.3755 20.0915H56.4843V7.92327C56.4843 6.91351 55.7763 6.09208 54.9058 6.09208H48.4696L46.4649 0.875792C46.3274 0.517887 46.0729 0.238269 45.7576 0.0979425C45.4421 -0.0423836 45.0915 -0.0316007 44.7834 0.128223L33.2521 6.09208H7.30715C3.27801 6.09208 0 9.89477 0 14.569C0 14.5709 0.000127331 14.5728 0.000127331 14.5749V61.5228C0.000127331 66.1972 3.27827 70 7.30753 70H60.3755C61.0786 70 61.6488 69.3387 61.6488 68.5229V51.8136C63.5171 51.6728 65 49.8659 65 47.6638V39.606C65 37.4039 63.5171 35.5969 61.6488 35.4561ZM52.2612 40.945C50.9825 40.945 49.9423 42.1516 49.9423 43.6348C49.9423 45.1181 50.9825 46.3248 52.2612 46.3248C53.5398 46.3248 54.58 45.1181 54.58 43.6348C54.58 42.1516 53.5398 40.945 52.2612 40.945ZM26.3654 37.204C28.9839 34.3638 33.2481 34.6517 33.3177 34.6567C34.0188 34.7136 34.6264 34.1021 34.6767 33.2892C34.7271 32.4755 34.1995 31.7684 33.4981 31.7099C33.2786 31.692 28.0917 31.3048 24.6411 35.0298C23.5883 36.1665 22.8193 37.5492 22.3331 39.1612H20.2105C19.5074 39.1612 18.9372 39.8225 18.9372 40.6383C18.9372 41.454 19.5074 42.1154 20.2105 42.1154H21.7834C21.738 42.6397 21.7124 43.1792 21.7124 43.7383C21.7124 44.0234 21.7205 44.3023 21.7322 44.5782H20.2105C19.5074 44.5782 18.9372 45.2395 18.9372 46.0553C18.9372 46.8712 19.5074 47.5325 20.2105 47.5325H22.1212C22.5795 49.4849 23.4214 51.13 24.6411 52.447C27.4485 55.4779 31.4057 55.7864 32.9011 55.7864C33.2436 55.7864 33.4571 55.7702 33.4981 55.7668C34.1995 55.7083 34.7271 55.0012 34.6767 54.1876C34.6263 53.3739 34.0173 52.7616 33.3153 52.8202C33.2724 52.8238 29.0237 53.1428 26.3761 50.2843C25.6801 49.5331 25.1548 48.613 24.8012 47.5325H31.0814C31.7847 47.5325 32.3547 46.8712 32.3547 46.0553C32.3547 45.2395 31.7847 44.5782 31.0814 44.5782H24.2831C24.2683 44.3042 24.259 44.0253 24.259 43.7383C24.259 43.1717 24.2891 42.6314 24.3462 42.1154H31.0814C31.7847 42.1154 32.3547 41.454 32.3547 40.6383C32.3547 39.8225 31.7847 39.1612 31.0814 39.1612H25.1C25.4274 38.4179 25.8491 37.7641 26.3654 37.204Z" fill="url(#paint0_linear)"/>
<defs>
<linearGradient id="paint0_linear" x1="46.751" y1="4.86391" x2="30.3437" y2="74.3547" gradientUnits="userSpaceOnUse">
<stop stop-color="white" stop-opacity="0.599468"/>
<stop offset="1" stop-color="white"/>
</linearGradient>
</defs>
</svg>

<svg width="65" height="70" fill="none" xmlns="http://www.w3.org/2000/svg"><path fill-rule="evenodd" clip-rule="evenodd" d="M62.453 47.664c0 .664-.466 1.205-1.039 1.205H51.206c-2.489 0-4.513-2.348-4.513-5.234s2.025-5.234 4.513-5.234h10.208c.573 0 1.04.54 1.04 1.205v8.058zm-3.35 19.382H7.307c-2.626 0-4.761-2.478-4.761-5.523V20.995A7.096 7.096 0 005.1 22.649l.014.005c.103.038.208.073.313.105l.03.01c.1.03.202.058.305.084l.036.009c.102.025.204.047.307.067l.037.007a6.362 6.362 0 00.67.088l.017.002h.008l.038.004h.013a6.826 6.826 0 00.42.016h51.793v12.4h-7.896c-3.893 0-7.06 3.674-7.06 8.189 0 4.515 3.167 8.189 7.06 8.189h7.896v15.222zm-51.796-58H27.54l-5.271 2.727-15.882 8.214a4.294 4.294 0 01-.189-.048l-.02-.006a4.402 4.402 0 01-.17-.052l-.043-.015a4.153 4.153 0 01-.155-.056l-.052-.02c-.05-.02-.1-.04-.148-.063l-.052-.023a4.496 4.496 0 01-.147-.07l-.04-.022a4.584 4.584 0 01-.67-.424l-.014-.012a4.434 4.434 0 01-.143-.114l-.03-.025a4.905 4.905 0 01-.135-.118l-.03-.028a4.932 4.932 0 01-.29-.291l-.005-.005a5.52 5.52 0 01-.87-1.27c0-.003-.002-.005-.003-.008a5.767 5.767 0 01-.096-.201v-.002a6.032 6.032 0 01-.358-1.046l-.018-.07-.032-.152a5.41 5.41 0 01-.081-.49l-.017-.148-.01-.107a6.312 6.312 0 01-.012-.185l-.004-.077a6.525 6.525 0 01-.006-.27v-.002c0-3.044 2.136-5.52 4.76-5.52zm41.339 4.76l2.416 6.286H12.439l10.605-5.486L44.657 3.428l3.989 10.377zm.959-4.76h4.333v11.046h-.088l-3.814-9.924-.431-1.122zm12.044 26.41V21.57c0-.816-.57-1.477-1.273-1.477h-3.892V7.922c0-1.01-.708-1.83-1.578-1.83H48.47L46.465.875a1.377 1.377 0 00-.707-.778 1.111 1.111 0 00-.975.03l-11.53 5.964H7.306C3.278 6.092 0 9.895 0 14.57v46.954C0 66.197 3.278 70 7.308 70h53.068c.703 0 1.273-.661 1.273-1.477v-16.71c1.868-.14 3.351-1.947 3.351-4.15v-8.057c0-2.202-1.483-4.01-3.351-4.15zm-9.388 5.489c-1.279 0-2.319 1.207-2.319 2.69 0 1.483 1.04 2.69 2.32 2.69 1.278 0 2.318-1.207 2.318-2.69 0-1.483-1.04-2.69-2.319-2.69zm-25.896-3.741c2.619-2.84 6.883-2.552 6.953-2.547.7.057 1.308-.555 1.359-1.368.05-.814-.477-1.52-1.179-1.58-.22-.017-5.406-.404-8.857 3.32-1.053 1.137-1.822 2.52-2.308 4.132h-2.122c-.704 0-1.274.661-1.274 1.477 0 .816.57 1.477 1.273 1.477h1.573a18.769 18.769 0 00-.05 2.463H20.21c-.703 0-1.273.661-1.273 1.477 0 .816.57 1.477 1.273 1.477h1.911c.459 1.953 1.3 3.598 2.52 4.915 2.808 3.03 6.765 3.34 8.26 3.34.343 0 .556-.017.597-.02.702-.059 1.23-.766 1.179-1.58-.05-.813-.66-1.425-1.362-1.367-.043.004-4.291.323-6.939-2.536-.696-.75-1.221-1.671-1.575-2.752h6.28c.704 0 1.274-.66 1.274-1.477 0-.816-.57-1.477-1.274-1.477h-6.798a14.744 14.744 0 01.063-2.463h6.735c.704 0 1.274-.661 1.274-1.477 0-.816-.57-1.477-1.274-1.477H25.1a7.062 7.062 0 011.265-1.957z" fill="url(#paint0_linear)"/><defs><linearGradient id="paint0_linear" x1="46.751" y1="4.864" x2="30.344" y2="74.355" gradientUnits="userSpaceOnUse"><stop stop-color="#fff" stop-opacity=".599"/><stop offset="1" stop-color="#fff"/></linearGradient></defs></svg>
